public/formular-icons/greece/lower-lambda.svg

<svg style="vertical-align:-.027ex" xmlns="http://www.w3.org/2000/svg" width="1.319ex" height="1.597ex" viewBox="0 -694 583 706" xmlns:xlink="http://www.w3.org/1999/xlink"><defs><path id="a" d="M166 673q0 12 17 21h19q90-3 114-50 6-15 57-158t101-279 50-140q7-20 13-33t9-19 5-9 4-4 1-4-6-9h-68q-25 14-32 29t-51 134l-45 125-14-15q-13-16-47-55t-57-66q-25-29-62-72-51-60-63-70T83-12q-36 0-36 32 0 17 14 32t138 135q30 29 67 65t55 54l17 16q0 1-50 140t-54 150q-20 45-51 45-17 0-17 16Z"/></defs><g stroke="currentColor" fill="currentColor" stroke-width="0"><use data-c="1D706" xlink:href="#a" transform="scale(1 -1)"/></g></svg>

<svg style="vertical-align: -0.027ex" xmlns="http://www.w3.org/2000/svg" width="1.319ex" height="1.597ex" role="img" focusable="false" viewBox="0 -694 583 706" xmlns:xlink="http://www.w3.org/1999/xlink"><defs><path id="MJX-106-TEX-I-1D706" d="M166 673Q166 685 183 694H202Q292 691 316 644Q322 629 373 486T474 207T524 67Q531 47 537 34T546 15T551 6T555 2T556 -2T550 -11H482Q457 3 450 18T399 152L354 277L340 262Q327 246 293 207T236 141Q211 112 174 69Q123 9 111 -1T83 -12Q47 -12 47 20Q47 37 61 52T199 187Q229 216 266 252T321 306L338 322Q338 323 288 462T234 612Q214 657 183 657Q166 657 166 673Z"></path></defs><g stroke="currentColor" fill="currentColor" stroke-width="0" transform="scale(1,-1)"><g data-mml-node="math"><g data-mml-node="mi"><use data-c="1D706" xlink:href="#MJX-106-TEX-I-1D706"></use></g></g></g></svg>
